X: 252
T: A favorite Irish Quick March
R: jig-time march
M: 6/8
L: 1/8
Z: 2011 John Chambers <jc:trillian.mit.edu>
B: Abraham Mackintosh "A Collection of Strathspeys, Reels, Jigs &c.", Newcastle, after 1797, p.25
F: http://imslp.info/files/imglnks/usimg/a/a8/IMSLP80796-PMLP164326-Abraham_Mackintosh_coll.pdf
N: The nested repeat at bar 9 really is in the published book. The original has three flats in
N: the second part, which makes no sense in this sort of music, so I suppressed the key change.
K: Gm
V: 1 clef=treble
V: 2 clef=treble
V: 3 clef=bass middle=d
[V:1]z | G3 G2^F | G2C B,3 | CCC CCC | CCC CC^F | G2A G2^F | G2A B2c | d2B B2A | G2^F G2 :|
[V:2]d | d2c B2A | G3 G2B | A2G F2G | A2B c2A | d2c B2A | G3 g2^f | g2d d2c | B2A G2 :|
[V:3]z | b2c' d'2c' | b2a g2g | c'2b a2g | f2g a2c' | b2c' d'2c' | b2a g2a | b2g b2c' | d'2d g2 :|
%
%K:Gphr %% Suppressed
[V:1]|: z \
     |: ([B3G3] [B2G2][cA]) :|\
        [B3G3] d2=e | d2^c d2z | [A3F3] [A2F2][BG] | [A3F3] [A2F2][BG] | A2c c2=e | d2^c d2z |
        B2B c2c | G2G ^F2F | G2G GAB | A2G ^FGA | G2A G2^F | G2A B2c | d2B B2A | G2^F G2 :|
[V:2]|: ^f \
     |: g3 d2^f :| gab a2g | ^f2=e d2e | f3 F2=e | f3 F2=e | f2g a2g | f2=e d2^f | gag =fgf |
        ded cdc | B2B Bcd | c2c ABc | d2c B2A | G3 g2^f | g2d d2c | B2A G2 :|
[V:3]|: z \
     |: (G2g g2g) :| G2g ^f2g | a2A d2z | F2f f2f | F2f f2f | f2e f2g | a2A d2z | G2G A2A |
        B2B A2A | G2G g2g | ^f2g d2c | B2c d2c | B2A G2A | B2G B2c | d2D G2 :|

%%sep 2 1 500

